frontend/public/svg/objects/camera.svg

<svg width="106" height="159" viewBox="0 0 106 159" fill="none" xmlns="http://www.w3.org/2000/svg">
<g clip-path="url(#clip0)">
<path d="M105.097 62.2201C105.076 61.17 105.054 60.083 104.948 59.0099C104.798 57.4999 104.652 55.9892 104.509 54.4778C104.011 49.2599 103.495 43.8642 102.764 38.582C102.458 36.3754 101.526 34.8279 100.068 34.1065C98.5378 33.3485 96.5977 33.586 94.456 34.7943C90.7582 36.8808 86.9548 38.6313 82.9281 40.4855C81.4619 41.1602 79.9864 41.8394 78.5077 42.5398C78.4453 42.2212 78.3856 41.9088 78.3272 41.6025C78.0981 40.4027 77.8815 39.2693 77.5829 38.1542C76.3917 33.7009 74.7233 32.3396 70.1446 32.0856C68.7361 32.0075 67.3224 32.0246 65.6816 32.0443C65.3324 32.0489 64.972 32.0529 64.5979 32.0561C67.8921 28.7009 70.4183 25.624 71.2808 21.4517C72.2974 16.5331 71.1856 12.3724 67.8822 8.73304C62.4393 2.7361 54.5888 1.8986 46.8827 6.491C44.1464 8.12133 42.1827 10.733 41.0473 14.253C40.7253 15.2253 40.4548 16.214 40.2373 17.215C40.2337 16.509 40.1752 15.8044 40.0621 15.1075C39.0323 8.78962 36.6261 4.37895 27.8273 1.91506C23.1069 0.595167 19.2009 1.71825 16.2205 5.2546C12.8866 9.13603 10.9336 14.0132 10.6673 19.1229C10.3037 24.7018 12.8857 28.9024 18.135 31.2573L18.3977 31.3755L16.7897 31.4733C13.7233 31.6604 10.8688 31.8342 8.01504 32.0167C2.87393 32.3449 1.36303 33.9601 1.54747 38.924C1.96818 50.213 2.46316 60.5609 3.06108 70.5544C3.35906 75.5307 5.31952 77.5384 10.5551 78.2283C11.7933 78.3818 13.0402 78.4534 14.2877 78.4422H14.3356C17.5648 78.4383 20.7942 78.4258 24.0238 78.4061C26.8605 78.3917 29.6975 78.3799 32.5346 78.372C33.1666 78.372 33.7874 78.4193 34.4549 78.4718L34.7654 78.4954C34.7606 78.5479 34.756 78.5997 34.7517 78.6509C34.7265 79.0211 34.6827 79.39 34.6204 79.7562C32.2366 92.1 30.5058 105.485 29.1728 121.879C28.5125 130 27.6147 138.244 26.7444 146.216L26.5887 147.646C26.4465 148.719 26.2322 149.78 25.9475 150.824C25.7296 151.703 25.5044 152.612 25.3613 153.532C25.041 155.582 25.8155 157.118 27.5423 157.858C28.434 158.212 29.4253 158.222 30.3244 157.887C31.2235 157.553 31.9666 156.897 32.4104 156.047C33.0131 155.004 33.4065 153.853 33.5683 152.66C34.247 147.343 34.9563 141.673 35.5136 135.923C36.278 128.04 37.0267 120.156 37.7597 112.27C38.5381 103.986 39.3426 95.4191 40.1631 86.9969C40.3665 84.9085 40.727 82.7839 41.0748 80.7289C41.2114 79.9229 41.3479 79.1156 41.4772 78.3064L42.1656 78.265C42.9368 78.2191 43.595 78.1771 44.2579 78.181C44.8979 78.181 45.5497 78.2342 46.2395 78.2867L46.6707 78.3188C47.8803 93.475 51.1339 108.261 54.2843 122.567C54.7393 124.633 55.1923 126.699 55.6429 128.766C56.89 134.513 58.1186 140.365 59.3052 146.028C59.8928 148.826 60.4813 151.623 61.0707 154.421C61.1384 154.787 61.2364 155.147 61.3635 155.497C62.0632 157.285 63.5129 158.382 65.0901 158.382C65.2935 158.382 65.4965 158.363 65.6966 158.327C67.8225 157.948 69.0518 156.598 69.1582 154.526C69.2113 153.467 69.1398 152.404 68.9449 151.362C68.4854 148.955 67.9741 146.368 67.3257 143.755C61.3529 119.667 57.119 99.7036 54.0021 80.9173C53.8846 80.2104 53.7762 79.5022 53.6515 78.6818L53.5584 78.0747H54.2968C55.2294 78.0747 56.0432 78.0806 56.8564 78.0688C58.5708 78.0445 60.2853 78.0248 62.0001 78.0097C66.2801 77.9664 70.7051 77.9217 75.058 77.7563C79.4108 77.591 80.4019 76.5749 80.6677 72.0495C80.7602 70.4703 80.7379 68.8991 80.7143 67.2294C80.7077 66.7378 80.7005 66.2388 80.6966 65.7288L81.412 65.9474C82.3965 66.2493 83.2497 66.51 84.1214 66.7469C85.3986 67.0935 86.6725 67.4525 87.9472 67.8109C91.1632 68.7153 94.4876 69.6486 97.8093 70.3817C100.394 70.9508 102.251 70.7198 103.488 69.6755C104.735 68.6214 105.281 66.7942 105.151 64.0893C105.122 63.4691 105.109 62.8443 105.097 62.2201ZM96.4027 61.137L79.8827 57.2739L79.0905 49.0158L95.7169 41.4897L96.4027 61.137ZM11.7451 71.6485L11.6643 71.6275L8.66816 39.0854C12.7852 39.0365 16.8921 38.978 20.9889 38.9102C37.4039 38.6575 54.3722 38.3951 71.286 39.1387C72.4412 46.0059 72.8153 52.9703 73.2111 60.3338C73.3988 63.8124 73.5917 67.4046 73.8753 70.9974C73.467 71.0545 73.0667 71.1155 72.6709 71.1766C71.5164 71.3846 70.3481 71.508 69.1752 71.5467C51.7325 71.6439 33.9956 71.6924 16.8448 71.739L12.2687 71.7515C12.0896 71.7469 11.9126 71.7121 11.7451 71.6485ZM31.2291 20.7591C30.6345 24.327 28.7126 25.8341 24.7529 25.7665C21.9136 25.7251 19.8764 24.9663 18.6977 23.5125C17.5189 22.0587 17.2051 19.9283 17.7479 17.1645C18.2349 14.6875 19.0107 11.8521 21.0729 9.60348C22.53 8.01579 22.9612 7.95141 24.9216 9.03174L25.2879 9.23251C27.8109 10.6167 30.1934 11.9236 30.8142 14.7747C31.3125 16.7282 31.4531 18.7556 31.2291 20.7591ZM62.9958 18.8834C62.944 22.784 60.654 26.4431 57.5482 27.5877C54.6419 28.6589 51.0341 27.6743 48.773 25.196C46.4489 22.6481 46.1475 19.6579 47.8002 15.4999C49.1319 12.148 51.55 10.1988 54.9879 9.70652C55.221 9.67023 55.4563 9.65027 55.6921 9.64673C55.8292 9.63321 55.9675 9.65231 56.0958 9.70252C56.4745 10.0307 56.8598 10.3503 57.2444 10.6726C59.6801 12.7112 61.9797 14.6362 62.9229 17.6954C62.9928 17.9892 63.0181 18.292 62.9977 18.5933C62.9957 18.7056 62.9958 18.8046 62.9958 18.8834ZM40.7348 24.2778C41.6492 26.1849 42.7085 28.0192 43.9035 29.7642C44.1753 30.1829 44.4458 30.6004 44.711 31.0178H32.5134C36.2766 28.5961 38.9311 24.7861 39.8993 20.4172C39.9108 21.748 40.196 23.0621 40.7374 24.2778H40.7348Z" fill="black"/>
</g>
<defs>
<clipPath id="clip0">
<rect width="104.358" height="157.521" fill="white" transform="translate(0.972656 0.861328)"/>
</clipPath>
</defs>
</svg>

<svg xmlns="http://www.w3.org/2000/svg" width="106" height="159" fill="none" viewBox="0 0 106 159"><g clip-path="url(#a)"><path fill="#000" d="M105.097 62.22c-.021-1.05-.043-2.137-.149-3.21q-.225-2.264-.439-4.532c-.498-5.218-1.014-10.614-1.745-15.896-.306-2.207-1.238-3.754-2.696-4.476-1.53-.758-3.47-.52-5.612.688-3.698 2.087-7.501 3.837-11.528 5.692a439 439 0 0 0-4.42 2.054l-.18-.937c-.23-1.2-.447-2.334-.745-3.449-1.191-4.453-2.86-5.814-7.438-6.068-1.409-.078-2.823-.061-4.463-.042q-.524.008-1.084.012c3.294-3.355 5.82-6.432 6.683-10.604 1.016-4.919-.095-9.08-3.399-12.719-5.443-5.997-13.293-6.834-21-2.242-2.736 1.63-4.7 4.242-5.835 7.762a29 29 0 0 0-.81 2.962 13.6 13.6 0 0 0-.175-2.107c-1.03-6.318-3.436-10.73-12.235-13.193-4.72-1.32-8.626-.197-11.606 3.34a23.13 23.13 0 0 0-5.554 13.868c-.363 5.579 2.219 9.78 7.468 12.134l.263.118-1.608.098c-3.067.187-5.921.361-8.775.544-5.141.328-6.652 1.943-6.468 6.907a1399 1399 0 0 0 1.514 31.63c.298 4.977 2.259 6.984 7.494 7.674q1.859.23 3.733.214h.048q4.843-.006 9.688-.036 4.255-.021 8.51-.034c.633 0 1.253.047 1.92.1l.311.023-.013.156q-.039.556-.132 1.105c-2.383 12.344-4.114 25.729-5.447 42.123-.66 8.121-1.558 16.365-2.429 24.337l-.155 1.43a24 24 0 0 1-.641 3.178c-.218.879-.444 1.788-.587 2.708-.32 2.05.454 3.586 2.181 4.326a3.877 3.877 0 0 0 4.868-1.811 9.3 9.3 0 0 0 1.158-3.387c.679-5.317 1.388-10.987 1.946-16.737a5966 5966 0 0 0 2.246-23.653c.778-8.284 1.583-16.85 2.403-25.273.204-2.088.564-4.213.912-6.268.136-.806.273-1.613.402-2.423l.689-.041c.77-.046 1.429-.088 2.092-.084.64 0 1.292.053 1.981.106l.432.032c1.21 15.156 4.463 29.942 7.613 44.248q.682 3.099 1.359 6.199a2486 2486 0 0 1 3.662 17.262l1.766 8.393q.1.55.293 1.076c.7 1.788 2.149 2.885 3.726 2.885q.305 0 .607-.055c2.126-.379 3.355-1.729 3.461-3.801a13.5 13.5 0 0 0-.213-3.164c-.46-2.407-.97-4.994-1.62-7.607-5.972-24.088-10.206-44.051-13.323-62.838a163 163 0 0 1-.35-2.235l-.094-.607h.739c.932 0 1.746.006 2.56-.006q2.57-.037 5.143-.06c4.28-.043 8.705-.087 13.058-.253 4.353-.165 5.344-1.181 5.61-5.707.092-1.579.07-3.15.046-4.82q-.01-.736-.017-1.5l.715.218c.984.302 1.838.563 2.71.8 1.277.347 2.55.706 3.825 1.064 3.216.904 6.54 1.838 9.862 2.57 2.585.57 4.442.339 5.679-.706 1.247-1.054 1.793-2.88 1.663-5.586a68 68 0 0 1-.054-1.869m-8.694-1.083-16.52-3.863-.792-8.258 16.626-7.526zM11.745 71.648l-.08-.02-2.997-32.543q6.176-.073 12.32-.175c16.416-.252 33.384-.515 50.298.229 1.155 6.867 1.53 13.831 1.925 21.195.188 3.478.38 7.07.664 10.663q-.611.087-1.204.18a24 24 0 0 1-3.496.37c-17.442.097-35.18.145-52.33.192l-4.576.012a1.6 1.6 0 0 1-.524-.103M31.23 20.76c-.594 3.568-2.516 5.075-6.476 5.008-2.84-.042-4.877-.8-6.055-2.254-1.18-1.454-1.493-3.585-.95-6.349.487-2.477 1.263-5.312 3.325-7.56 1.457-1.588 1.888-1.653 3.849-.572l.366.2c2.523 1.385 4.905 2.692 5.526 5.543.498 1.953.64 3.98.415 5.984m31.767-1.876c-.052 3.901-2.342 7.56-5.448 8.705-2.906 1.07-6.514.086-8.775-2.392-2.324-2.548-2.626-5.538-.973-9.696 1.332-3.352 3.75-5.301 7.188-5.793q.35-.056.704-.06a.9.9 0 0 1 .404.056c.379.328.764.647 1.148.97 2.436 2.038 4.736 3.963 5.679 7.022.07.294.095.597.075.898q-.003.171-.002.29m-22.261 5.395a41.4 41.4 0 0 0 3.169 5.486q.408.628.807 1.254H32.513a16.97 16.97 0 0 0 7.386-10.6 9.7 9.7 0 0 0 .838 3.86z"/></g><defs><clipPath id="a"><path fill="#fff" d="M.973.861H105.33v157.521H.973z"/></clipPath></defs></svg>
